X: 41020
T: Trip To Ireland, The
R: reel
M: 4/4
K: Eminor
|:EFGA B4|eede zdef|gfga fedB|edBA BEFD|
E/D/E/F/ GA Bgfd|eede zdef|gfga fedB|edBA BEFD:|
|:EEBE zGBG|AAGA zEGA|B2 e2 e2 e2|d2 Bd e2 ed|
edef edBG|AAGA zEGA|B2 AG AGED|EEDE E2z2:|

